local/share/icons/dracula-icons-main/scalable/mimetypes/text-x-csharp.svg

<?xml version="1.0" encoding="UTF-8"?>
<svg xmlns="http://www.w3.org/2000/svg" xmlns:xlink="http://www.w3.org/1999/xlink" width="64" height="64" viewBox="0 0 64 64">
<defs>
<filter id="filter-remove-color" x="0%" y="0%" width="100%" height="100%">
<feColorMatrix color-interpolation-filters="sRGB" values="0 0 0 0 1 0 0 0 0 1 0 0 0 0 1 0 0 0 1 0" />
</filter>
<mask id="mask-0">
<g filter="url(#filter-remove-color)">
<rect x="-6.4" y="-6.4" width="76.8" height="76.8" fill="rgb(0%, 0%, 0%)" fill-opacity="0.1"/>
</g>
</mask>
<linearGradient id="linear-pattern-0" gradientUnits="userSpaceOnUse" x1="49.570999" y1="52.714001" x2="51.714001" y2="54.856998" gradientTransform="matrix(0.617345, 0, 0, 0.617345, -18.167916, -19.050025)">
<stop offset="0" stop-color="rgb(0%, 0%, 0%)" stop-opacity="1"/>
<stop offset="1" stop-color="rgb(0%, 0%, 0%)" stop-opacity="0"/>
</linearGradient>
<clipPath id="clip-0">
<rect x="0" y="0" width="17" height="17"/>
</clipPath>
<g id="source-10441" clip-path="url(#clip-0)">
<path fill-rule="evenodd" fill="url(#linear-pattern-0)" d="M 14.816406 12.171875 L 11.113281 15.875 L 13.492188 15.875 C 14.226562 15.875 14.816406 15.285156 14.816406 14.550781 Z M 14.816406 12.171875 "/>
</g>
</defs>
<path fill-rule="nonzero" fill="rgb(95.686275%, 95.686275%, 95.686275%)" fill-opacity="1" d="M 3.441406 1.058594 L 13.492188 1.058594 C 14.222656 1.058594 14.816406 1.652344 14.816406 2.382812 L 14.816406 14.550781 C 14.816406 15.28125 14.222656 15.875 13.492188 15.875 L 3.441406 15.875 C 2.707031 15.875 2.117188 15.28125 2.117188 14.550781 L 2.117188 2.382812 C 2.117188 1.652344 2.707031 1.058594 3.441406 1.058594 Z M 3.441406 1.058594 "/>
<g mask="url(#mask-0)">
<use xlink:href="#source-10441"/>
</g>
<path fill-rule="nonzero" fill="rgb(54.901961%, 34.901961%, 85.098039%)" fill-opacity="1" d="M 5.820312 6.351562 C 5.820312 6.351562 4.761719 6.351562 4.761719 7.40625 L 4.761719 9.523438 C 4.761719 10.582031 5.820312 10.582031 5.820312 10.582031 L 7.40625 10.582031 L 7.40625 10.054688 L 5.820312 10.054688 C 5.820312 10.054688 5.292969 10.054688 5.292969 9.523438 L 5.292969 7.40625 C 5.292969 6.878906 5.820312 6.878906 5.820312 6.878906 L 7.40625 6.878906 L 7.40625 6.351562 Z M 8.996094 6.351562 L 8.996094 7.40625 L 7.9375 7.40625 L 7.9375 7.9375 L 8.996094 7.9375 L 8.996094 8.996094 L 7.9375 8.996094 L 7.9375 9.523438 L 8.996094 9.523438 L 8.996094 10.582031 L 9.523438 10.582031 L 9.523438 9.523438 L 10.582031 9.523438 L 10.582031 10.582031 L 11.113281 10.582031 L 11.113281 9.523438 L 12.171875 9.523438 L 12.171875 8.996094 L 11.113281 8.996094 L 11.113281 7.9375 L 12.171875 7.9375 L 12.171875 7.40625 L 11.113281 7.40625 L 11.113281 6.351562 L 10.582031 6.351562 L 10.582031 7.40625 L 9.523438 7.40625 L 9.523438 6.351562 Z M 9.523438 7.9375 L 10.582031 7.9375 L 10.582031 8.996094 L 9.523438 8.996094 Z M 9.523438 7.9375 "/>
</svg>

<svg width="64" height="64" version="1.1" viewBox="0 0 16.933 16.933" xmlns="http://www.w3.org/2000/svg">
 <defs>
  <linearGradient id="a" x1="49.571" x2="51.714" y1="52.714" y2="54.857" gradientTransform="matrix(2.3333,0,0,2.3333,-68.667,-72.001)" gradientUnits="userSpaceOnUse">
   <stop offset="0"/>
   <stop stop-opacity="0" offset="1"/>
  </linearGradient>
 </defs>
 <g transform="scale(.26458)">
  <rect x="8" y="4" width="48" height="56" ry="5" fill="#f4f4f4" style="paint-order:stroke fill markers"/>
  <path d="m56 46-14 14h9c2.77 0 5-2.23 5-5z" fill="url(#a)" fill-rule="evenodd" opacity=".1" stroke-width="8.8191" style="paint-order:stroke fill markers"/>
 </g>
 <path d="m5.8207 6.3499s-1.0583 0-1.0583 1.0583v2.1166c0 1.0583 1.0583 1.0583 1.0583 1.0583h1.5875v-0.52916h-1.5875s-0.52916 0-0.52916-0.52916v-2.1166c0-0.52916 0.52916-0.52916 0.52916-0.52916h1.5875v-0.52916zm3.1749 0v1.0583h-1.0583v0.52916h1.0583v1.0583h-1.0583v0.52916h1.0583v1.0583h0.52916v-1.0583h1.0583v1.0583h0.52916v-1.0583h1.0583v-0.52916h-1.0583v-1.0583h1.0583v-0.52916h-1.0583v-1.0583h-0.52916v1.0583h-1.0583v-1.0583zm0.52916 1.5875h1.0583v1.0583h-1.0583z" color="#000000" fill="#8c59d9" style="text-decoration-line:none;text-indent:0;text-transform:none"/>
</svg>
